icons/volume-up.svg

<svg xmlns="http://www.w3.org/2000/svg" width="96" height="96"><path d="M58 12.3v71.4c.3 3.1-1.8 5.9-4.8 6.5-.8.1-1.6.1-2.3-.2l-2.1-.9-26-19.5c-1.4-1-3.1-1.6-4.8-1.6h-8c-2.1 0-4.2-.8-5.7-2.3C2.8 64.2 2 62.1 2 60V36c0-2.1.8-4.2 2.3-5.7C5.8 28.8 7.9 28 10 28h8c1.7 0 3.4-.6 4.8-1.6l26-19.5 2.1-.9c.7-.3 1.5-.3 2.3-.2 3 .6 5.1 3.4 4.8 6.5zM50 16v64L27.6 63.2C24.8 61.1 21.5 60 18 60h-8V36h8c3.5 0 6.8-1.1 9.6-3.2L50 16zm15.9 12.2c-1.1 0-2.2-.5-3-1.3-.7-.8-1.2-1.9-1.1-3 0-1.1.5-2.2 1.3-3 .8-.8 1.9-1.2 3-1.1 2.7.4 4.9 1.8 6.3 3.8 1.4 1.9 2.4 4 3.1 6.3 1.8 5.8 2.6 12 2.5 18.1.1 6.1-.7 12.3-2.5 18.1-.7 2.3-1.7 4.4-3.1 6.3-1.4 2-3.6 3.4-6 3.6-1.1.1-2.1-.2-2.9-.9-.9-.7-1.4-1.7-1.5-2.7-.1-1.1.3-2.1.9-3 .7-.8 1.7-1.3 2.7-1.4 1.2-1.4 1.8-2.8 2.2-4.2 1.6-5.1 2.3-10.4 2.2-15.8.1-5.4-.6-10.7-2.2-15.8-.4-1.4-1-2.8-1.9-4zM86 48c-.1-6.7-1.1-13.4-3.2-19.8-.7-2.7-1.8-5.2-3.2-7.6.1-.3-.2-.6-.5-.7-1-.2-1.9-.9-2.5-1.8-.5-.9-.7-1.9-.5-3 .2-1 .9-1.9 1.8-2.5.9-.5 1.9-.7 3-.5 2.8.6 5.2 2.7 6.2 5.4 1.4 2.7 2.6 5.5 3.4 8.4C92.7 33 93.9 40.5 94 48c-.1 7.5-1.3 15-3.5 22.1-.8 2.9-2 5.7-3.4 8.4-1 2.7-3.4 4.8-6.2 5.4-1.1.2-2.1 0-3-.5-.9-.6-1.6-1.5-1.8-2.5-.2-1.1 0-2.1.5-3 .6-.9 1.5-1.6 2.5-1.8.3-.1.6-.4.5-.7 1.4-2.4 2.5-4.9 3.2-7.6 2.1-6.4 3.1-13.1 3.2-19.8z" fill-rule="evenodd" fill="#454545"/></svg>

<?xml version="1.0" standalone="no"?><!-- Generator: Gravit.io --><svg xmlns="http://www.w3.org/2000/svg" xmlns:xlink="http://www.w3.org/1999/xlink" width="96" height="96"><path d=" M 58 12.3 L 58 83.7 C 58.3 86.8 56.2 89.6 53.2 90.2 C 52.4 90.3 51.6 90.3 50.9 90 L 48.8 89.1 L 22.799999999999997 69.6 C 21.4 68.6 19.7 68 18 68 L 10 68 C 7.899999999999999 68 5.800000000000001 67.2 4.300000000000001 65.7 C 2.8000000000000007 64.2 2 62.1 2 60 L 2 36 C 2 33.9 2.8000000000000007 31.8 4.300000000000001 30.3 C 5.800000000000001 28.8 7.899999999999999 28 10 28 L 18 28 C 19.7 28 21.4 27.4 22.799999999999997 26.4 L 48.8 6.9 L 50.9 6 C 51.6 5.7 52.4 5.7 53.2 5.8 C 56.2 6.4 58.3 9.2 58 12.3 Z  M 50 16 L 50 80 L 27.6 63.2 C 24.799999999999997 61.1 21.5 60 18 60 L 10 60 L 10 36 L 18 36 C 21.5 36 24.799999999999997 34.9 27.6 32.8 L 50 16 Z  M 65.9 28.2 C 64.8 28.2 63.7 27.7 62.9 26.9 C 62.2 26.1 61.7 25 61.8 23.9 C 61.8 22.8 62.3 21.7 63.1 20.9 C 63.9 20.1 65 19.7 66.1 19.8 C 68.8 20.2 71 21.6 72.4 23.6 C 73.8 25.5 74.8 27.6 75.5 29.9 C 77.3 35.7 78.1 41.9 78 48 C 78.1 54.1 77.3 60.3 75.5 66.1 C 74.8 68.4 73.8 70.5 72.4 72.4 C 71 74.4 68.8 75.8 66.4 76 C 65.3 76.1 64.3 75.8 63.5 75.1 C 62.6 74.4 62.1 73.4 62 72.4 C 61.9 71.3 62.3 70.3 62.9 69.4 C 63.6 68.6 64.6 68.1 65.6 68 C 66.8 66.6 67.4 65.2 67.8 63.8 C 69.4 58.7 70.1 53.4 70 48 C 70.1 42.6 69.4 37.3 67.8 32.2 C 67.4 30.8 66.8 29.4 65.9 28.2 Z  M 86 48 C 86 48 86 48 86 48 L 86 48 L 86 48 C 86 48 86 48 86 48 C 85.9 41.3 84.9 34.6 82.8 28.2 C 82.1 25.5 81 23 79.6 20.6 C 79.7 20.3 79.4 20 79.1 19.9 C 78.1 19.7 77.2 19 76.6 18.1 C 76.1 17.2 75.9 16.2 76.1 15.1 C 76.3 14.1 77 13.2 77.9 12.6 C 78.8 12.1 79.8 11.9 80.9 12.1 C 83.7 12.7 86.1 14.8 87.1 17.5 C 88.5 20.2 89.7 23 90.5 25.9 C 92.7 33 93.9 40.5 94 48 C 94 48 94 48 94 48 L 94 48 L 94 48 C 93.9 55.5 92.7 63 90.5 70.1 C 89.7 73 88.5 75.8 87.1 78.5 C 86.1 81.2 83.7 83.3 80.9 83.9 C 79.8 84.1 78.8 83.9 77.9 83.4 C 77 82.8 76.3 81.9 76.1 80.9 C 75.9 79.8 76.1 78.8 76.6 77.9 C 77.2 77 78.1 76.3 79.1 76.1 C 79.4 76 79.7 75.7 79.6 75.4 C 81 73 82.1 70.5 82.8 67.8 C 84.9 61.4 85.9 54.7 86 48 Z " fill-rule="evenodd" fill="#454545" stroke="none"/><mask id="_mask_KI4pLwwAYnS8xpevs8FDMjU7Eh4yMjIU"><path d=" M 58 12.3 L 58 83.7 C 58.3 86.8 56.2 89.6 53.2 90.2 C 52.4 90.3 51.6 90.3 50.9 90 L 48.8 89.1 L 22.799999999999997 69.6 C 21.4 68.6 19.7 68 18 68 L 10 68 C 7.899999999999999 68 5.800000000000001 67.2 4.300000000000001 65.7 C 2.8000000000000007 64.2 2 62.1 2 60 L 2 36 C 2 33.9 2.8000000000000007 31.8 4.300000000000001 30.3 C 5.800000000000001 28.8 7.899999999999999 28 10 28 L 18 28 C 19.7 28 21.4 27.4 22.799999999999997 26.4 L 48.8 6.9 L 50.9 6 C 51.6 5.7 52.4 5.7 53.2 5.8 C 56.2 6.4 58.3 9.2 58 12.3 Z  M 50 16 L 50 80 L 27.6 63.2 C 24.799999999999997 61.1 21.5 60 18 60 L 10 60 L 10 36 L 18 36 C 21.5 36 24.799999999999997 34.9 27.6 32.8 L 50 16 Z  M 65.9 28.2 C 64.8 28.2 63.7 27.7 62.9 26.9 C 62.2 26.1 61.7 25 61.8 23.9 C 61.8 22.8 62.3 21.7 63.1 20.9 C 63.9 20.1 65 19.7 66.1 19.8 C 68.8 20.2 71 21.6 72.4 23.6 C 73.8 25.5 74.8 27.6 75.5 29.9 C 77.3 35.7 78.1 41.9 78 48 C 78.1 54.1 77.3 60.3 75.5 66.1 C 74.8 68.4 73.8 70.5 72.4 72.4 C 71 74.4 68.8 75.8 66.4 76 C 65.3 76.1 64.3 75.8 63.5 75.1 C 62.6 74.4 62.1 73.4 62 72.4 C 61.9 71.3 62.3 70.3 62.9 69.4 C 63.6 68.6 64.6 68.1 65.6 68 C 66.8 66.6 67.4 65.2 67.8 63.8 C 69.4 58.7 70.1 53.4 70 48 C 70.1 42.6 69.4 37.3 67.8 32.2 C 67.4 30.8 66.8 29.4 65.9 28.2 Z  M 86 48 C 86 48 86 48 86 48 L 86 48 L 86 48 C 86 48 86 48 86 48 C 85.9 41.3 84.9 34.6 82.8 28.2 C 82.1 25.5 81 23 79.6 20.6 C 79.7 20.3 79.4 20 79.1 19.9 C 78.1 19.7 77.2 19 76.6 18.1 C 76.1 17.2 75.9 16.2 76.1 15.1 C 76.3 14.1 77 13.2 77.9 12.6 C 78.8 12.1 79.8 11.9 80.9 12.1 C 83.7 12.7 86.1 14.8 87.1 17.5 C 88.5 20.2 89.7 23 90.5 25.9 C 92.7 33 93.9 40.5 94 48 C 94 48 94 48 94 48 L 94 48 L 94 48 C 93.9 55.5 92.7 63 90.5 70.1 C 89.7 73 88.5 75.8 87.1 78.5 C 86.1 81.2 83.7 83.3 80.9 83.9 C 79.8 84.1 78.8 83.9 77.9 83.4 C 77 82.8 76.3 81.9 76.1 80.9 C 75.9 79.8 76.1 78.8 76.6 77.9 C 77.2 77 78.1 76.3 79.1 76.1 C 79.4 76 79.7 75.7 79.6 75.4 C 81 73 82.1 70.5 82.8 67.8 C 84.9 61.4 85.9 54.7 86 48 Z " fill-rule="evenodd" fill="white" stroke="none"/></mask><path d=" M 58 12.3 L 58 83.7 C 58.3 86.8 56.2 89.6 53.2 90.2 C 52.4 90.3 51.6 90.3 50.9 90 L 48.8 89.1 L 22.799999999999997 69.6 C 21.4 68.6 19.7 68 18 68 L 10 68 C 7.899999999999999 68 5.800000000000001 67.2 4.300000000000001 65.7 C 2.8000000000000007 64.2 2 62.1 2 60 L 2 36 C 2 33.9 2.8000000000000007 31.8 4.300000000000001 30.3 C 5.800000000000001 28.8 7.899999999999999 28 10 28 L 18 28 C 19.7 28 21.4 27.4 22.799999999999997 26.4 L 48.8 6.9 L 50.9 6 C 51.6 5.7 52.4 5.7 53.2 5.8 C 56.2 6.4 58.3 9.2 58 12.3 Z  M 50 16 L 50 80 L 27.6 63.2 C 24.799999999999997 61.1 21.5 60 18 60 L 10 60 L 10 36 L 18 36 C 21.5 36 24.799999999999997 34.9 27.6 32.8 L 50 16 Z  M 65.9 28.2 C 64.8 28.2 63.7 27.7 62.9 26.9 C 62.2 26.1 61.7 25 61.8 23.9 C 61.8 22.8 62.3 21.7 63.1 20.9 C 63.9 20.1 65 19.7 66.1 19.8 C 68.8 20.2 71 21.6 72.4 23.6 C 73.8 25.5 74.8 27.6 75.5 29.9 C 77.3 35.7 78.1 41.9 78 48 C 78.1 54.1 77.3 60.3 75.5 66.1 C 74.8 68.4 73.8 70.5 72.4 72.4 C 71 74.4 68.8 75.8 66.4 76 C 65.3 76.1 64.3 75.8 63.5 75.1 C 62.6 74.4 62.1 73.4 62 72.4 C 61.9 71.3 62.3 70.3 62.9 69.4 C 63.6 68.6 64.6 68.1 65.6 68 C 66.8 66.6 67.4 65.2 67.8 63.8 C 69.4 58.7 70.1 53.4 70 48 C 70.1 42.6 69.4 37.3 67.8 32.2 C 67.4 30.8 66.8 29.4 65.9 28.2 Z  M 86 48 C 86 48 86 48 86 48 L 86 48 L 86 48 C 86 48 86 48 86 48 C 85.9 41.3 84.9 34.6 82.8 28.2 C 82.1 25.5 81 23 79.6 20.6 C 79.7 20.3 79.4 20 79.1 19.9 C 78.1 19.7 77.2 19 76.6 18.1 C 76.1 17.2 75.9 16.2 76.1 15.1 C 76.3 14.1 77 13.2 77.9 12.6 C 78.8 12.1 79.8 11.9 80.9 12.1 C 83.7 12.7 86.1 14.8 87.1 17.5 C 88.5 20.2 89.7 23 90.5 25.9 C 92.7 33 93.9 40.5 94 48 C 94 48 94 48 94 48 L 94 48 L 94 48 C 93.9 55.5 92.7 63 90.5 70.1 C 89.7 73 88.5 75.8 87.1 78.5 C 86.1 81.2 83.7 83.3 80.9 83.9 C 79.8 84.1 78.8 83.9 77.9 83.4 C 77 82.8 76.3 81.9 76.1 80.9 C 75.9 79.8 76.1 78.8 76.6 77.9 C 77.2 77 78.1 76.3 79.1 76.1 C 79.4 76 79.7 75.7 79.6 75.4 C 81 73 82.1 70.5 82.8 67.8 C 84.9 61.4 85.9 54.7 86 48 Z " fill-rule="evenodd" fill="none" stroke="none" stroke-width="16" mask="url(#_mask_KI4pLwwAYnS8xpevs8FDMjU7Eh4yMjIU)"/></svg>
